X:1
T: Promise of Spring
N:
C:Charlene Thomson
S:Tune is "Baroque'n Promise"
A:
O:
R:
M:4/4
K:Am
I:speed 210
%W: A1
% voice 1 (1 lines, 30 notes)
K:Am
M:4/4
L:1/16
c4 e8 a4 |^g8 e8 |f2 e2 d2 c2 B4 A4 |^G8 E8 |A4 E4 B4 E4 |A2 B2 c2 d2 e4 f2 d2 |c4 B2 A2 B6 ^A2 |A16 |
%W: A2
% voice 1 (1 lines, 31 notes)
c4 e8 a4 |^g8 e8 |f2 e2 d2 c2 B4 A4 |^G8 E8 |A4 E4 B4 E4 |A2 B2 c2 d2 e4 f2 d2 |c4 B2 A2 B6 ^A2 |A12 c4 |
%W: B1
% voice 1 (1 lines, 35 notes)
B4 e8 B4 |c6 B2 A4 c4 |B4 e4 e2 ^f2 ^g4 |a4 e2 d2 c4 A4 |B4 e8 B4 |c4 d2 e2 f4 g2 f2 |e4 c2 A2 c2 B2 A2 ^G2 |A12 c4 |
%W: B2
% voice 1 (1 lines, 35 notes)
B4 e8 B4 |c6 B2 A4 c4 |B4 e4 e2 ^f2 ^g4 |a4 e2 d2 c4 A4 |B4 e8 B4 |c4 d2 e2 f4 g2 f2 |e4 a2 c'2 b2 a2 ^g2 e2 |a8 a8 ||
